X: 14651
T: Gan Ainm
R: waltz
M: 3/4
K: Gmajor
[M:5/8][L: 1/16]DG|:"D"F2A2 "G"G2B2 B2|"D7"A2c2 "G"B2G2 DG|"D"F2A2 "G"G2B2 d2|1 "D7"c2A2 "G"G4 DG:|2 "D7"c2A2 "G"G4 d2||
"D7"c2A2 "G"B2G2 d2|"D7"c2A2 "G"B2G2 DG|"D"F2A2 "G"B2G2 d2|"Am7"c2A2 "D"d4 d2|
"D7"c2A2 "G"B2G2 d2|"D7"c2A2 "G"B2G2 DG|"D"F2A2 "G"G2B2 d2|"D7"c2A2 "G"G4||

